Delta/apps/scalable/tiktok.svg

<svg width="192" height="192" fill="none" version="1.1" viewBox="0 0 192 192" xmlns="http://www.w3.org/2000/svg">
 <g clip-rule="evenodd" fill-rule="evenodd">
  <path d="m98 12h30v0.1655s3.182 21.428 13.813 29.632c10.632 8.203 25.187 8.203 25.187 8.203v30s-13.321-0.1887-21.633-2.8603c-8.311-2.6716-17.367-9.6397-17.367-9.6397v55.5c0 28.719-23.281 52-52 52-28.719 0-52-23.281-52-52 0-28.719 23.281-52 52-52 2.7205 0 5.3922 0.2089 8 0.6116v30.888c-2.4795-0.969-5.1777-1.5-8-1.5-12.15 0-22 9.85-22 22s9.8497 22 22 22c11.476 0 20.9-8.787 21.91-20h0.0897v-113z" fill="#96DFD3"/>
  <path d="m105 19h30v0.1655s3.182 21.428 13.813 29.632c10.632 8.203 25.187 8.203 25.187 8.203v30s-13.321-0.1887-21.633-2.8603c-8.311-2.6716-17.367-9.6397-17.367-9.6397v55.5c0 28.719-23.281 52-52 52-28.719 0-52-23.281-52-52s23.281-52 52-52c2.7205 0 5.3922 0.2089 8 0.6116v30.888c-2.4795-0.969-5.1777-1.5-8-1.5-12.15 0-22 9.85-22 22s9.8497 22 22 22c11.476 0 20.9-8.787 21.91-20h0.09v-113z" fill="#FF837D"/>
  <path d="m84 78.009v24.491c-2.4795-0.969-5.1777-1.5-8-1.5-12.15 0-22 9.85-22 22 0 7.868 4.13 14.771 10.34 18.66 3.8887 6.21 10.792 10.34 18.66 10.34 11.476 0 20.9-8.787 21.91-20h0.09v-113h24.467c1.832 7.0013 5.581 17.577 12.346 22.797 0.603 0.4653 1.219 0.9042 1.844 1.3183 1.483 2.1996 3.192 4.1663 5.156 5.6817 5.908 4.5581 13.027 6.5834 18.187 7.4834v23.72s-13.321-0.1887-21.633-2.8603c-8.311-2.6716-17.367-9.6397-17.367-9.6397v55.5c0 28.719-23.281 52-52 52-12.577 0-24.111-4.465-33.104-11.896-7.4314-8.993-11.896-20.527-11.896-33.104 0-28.719 23.281-52 52-52 0.3341 0 0.6674 0.0032 1 0.0094z" fill="#fff"/>
 </g>
</svg>

<svg width="192" height="192" viewBox="0 0 192 192" fill="none" xmlns="http://www.w3.org/2000/svg">
<path fill-rule="evenodd" clip-rule="evenodd" d="M98 12H128V12.1655C128 12.1655 131.182 33.5939 141.813 41.797C152.445 50 167 50 167 50V80C167 80 153.679 79.8113 145.367 77.1397C137.056 74.4681 128 67.5 128 67.5V123C128 151.719 104.719 175 76 175C47.2812 175 24 151.719 24 123C24 94.2812 47.2812 71 76 71C78.7205 71 81.3922 71.2089 84 71.6116V102.5C81.5205 101.531 78.8223 101 76 101C63.8497 101 54 110.85 54 123C54 135.15 63.8497 145 76 145C87.4761 145 96.8999 136.213 97.9103 125H98V123V75.8695V12Z" fill="#96DFD3"/>
<path fill-rule="evenodd" clip-rule="evenodd" d="M105 19H135V19.1655C135 19.1655 138.182 40.5939 148.813 48.797C159.445 57 174 57 174 57V87C174 87 160.679 86.8113 152.367 84.1397C144.056 81.4681 135 74.5 135 74.5V130C135 158.719 111.719 182 83 182C54.2812 182 31 158.719 31 130C31 101.281 54.2812 78 83 78C85.7205 78 88.3922 78.2089 91 78.6116V109.5C88.5205 108.531 85.8223 108 83 108C70.8497 108 61 117.85 61 130C61 142.15 70.8497 152 83 152C94.4761 152 103.9 143.213 104.91 132H105V130V82.8695V19Z" fill="#FF837D"/>
<path fill-rule="evenodd" clip-rule="evenodd" d="M84 78.0094V102.5C81.5205 101.531 78.8223 101 76 101C63.8497 101 54 110.85 54 123C54 130.868 58.13 137.771 64.3404 141.66C68.2291 147.87 75.1323 152 83 152C94.4761 152 103.9 143.213 104.91 132H105V130V82.8695V19H129.467C131.299 26.0013 135.048 36.5769 141.813 41.797C142.416 42.2623 143.032 42.7012 143.657 43.1153C145.14 45.3149 146.849 47.2816 148.813 48.797C154.721 53.3551 161.84 55.3804 167 56.2804V80C167 80 153.679 79.8113 145.367 77.1397C137.056 74.4681 128 67.5 128 67.5V123C128 151.719 104.719 175 76 175C63.423 175 51.8889 170.535 42.8964 163.104C35.465 154.111 31 142.577 31 130C31 101.281 54.2812 78 83 78C83.3341 78 83.6674 78.0032 84 78.0094Z" fill="white"/>
</svg>
